32x32/apps/net.wz2100.wz2100.svg

<svg xmlns="http://www.w3.org/2000/svg" width="32" height="32" version="1"><path style="fill:#17191e" d="m8 17 3-6h9.612L24 17z"/><rect style="opacity:.2" width="18" height="9" x="7" y="6" rx="1.5" ry="1.5"/><rect style="opacity:.2" width="24" height="9" x="4" y="17" rx="1.5" ry="1.5"/><rect style="fill:#8e8e8e" width="24" height="9" x="4" y="16" rx="1.5" ry="1.5"/><path style="fill:#f4f4f7;opacity:.1" d="M5.5 16c-.831 0-1.5.669-1.5 1.5v4c0-.831.669-1.5 1.5-1.5h21c.831 0 1.5.669 1.5 1.5v-4c0-.831-.669-1.5-1.5-1.5h-21z"/><rect style="opacity:.2" width="7" height="11" x="23" y="18" rx=".75" ry=".75"/><rect style="opacity:.2" width="7" height="11" x="2" y="18" rx=".75" ry=".75"/><path style="fill:#f4f4f7;opacity:.2" d="M5.5 16c-.831 0-1.5.669-1.5 1.5v1c0-.831.669-1.5 1.5-1.5h21c.831 0 1.5.669 1.5 1.5v-1c0-.831-.669-1.5-1.5-1.5h-21z"/><rect style="fill:#4f4f4f" width="7" height="11" x="2" y="17" rx=".75" ry=".75"/><rect style="fill:#8e8e8e" width="18" height="9" x="7" y="5" rx="1.5" ry="1.5"/><rect style="fill:#4f4f4f" width="7" height="11" x="23" y="17" rx=".75" ry=".75"/><g style="fill:#17191e"><rect style="fill:#17191e" width="3" height="3" x="8" y="6" rx=".75" ry=".75"/><rect style="fill:#17191e" width="3" height="3" x="12" y="6" rx=".75" ry=".75"/><rect style="fill:#17191e" width="3" height="3" x="17" y="6" rx=".75" ry=".75"/><rect style="fill:#17191e" width="3" height="3" x="21" y="6" rx=".75" ry=".75"/><rect style="fill:#17191e" width="3" height="3" x="21" y="10" rx=".75" ry=".75"/><rect style="fill:#17191e" width="3" height="3" x="17" y="10" rx=".75" ry=".75"/><rect style="fill:#17191e" width="3" height="3" x="12" y="10" rx=".75" ry=".75"/><rect style="fill:#17191e" width="3" height="3" x="8" y="10" rx=".75" ry=".75"/></g><path style="opacity:.2;fill:#f4f4f7" d="M8.5 5C7.669 5 7 5.669 7 6.5v1C7 6.669 7.669 6 8.5 6h15c.831 0 1.5.669 1.5 1.5v-1c0-.831-.669-1.5-1.5-1.5h-15z"/><path style="fill:#17191e" d="M23.75 17a.748.748 0 0 0-.75.75V20h7v-2.25a.748.748 0 0 0-.75-.75zM23 24v3h7v-3zM2.75 28a.748.748 0 0 1-.75-.75V25h7v2.25c0 .416-.335.75-.75.75zM2 22v-3h7v3z"/></svg>

<svg xmlns="http://www.w3.org/2000/svg" width="32" height="32" version="1">
 <path style="fill:#17191e" d="M 8,17 11,11 H 20.612 L 24,17 Z"/>
 <rect style="opacity:0.2" width="18" height="9" x="7" y="6" rx="1.5" ry="1.5"/>
 <rect style="opacity:0.2" width="24" height="9" x="4" y="17" rx="1.5" ry="1.5"/>
 <rect style="fill:#8e8e8e" width="24" height="9" x="4" y="16" rx="1.5" ry="1.5"/>
 <path style="fill:#f4f4f7;opacity:0.1" d="M 5.5 16 C 4.669 16 4 16.669 4 17.5 L 4 21.5 C 4 20.669 4.669 20 5.5 20 L 26.5 20 C 27.331 20 28 20.669 28 21.5 L 28 17.5 C 28 16.669 27.331 16 26.5 16 L 5.5 16 z"/>
 <rect style="opacity:0.2" width="7" height="11" x="23" y="18" rx=".75" ry=".75"/>
 <rect style="opacity:0.2" width="7" height="11" x="2" y="18" rx=".75" ry=".75"/>
 <path style="fill:#f4f4f7;opacity:0.2" d="M 5.5 16 C 4.669 16 4 16.669 4 17.5 L 4 18.5 C 4 17.669 4.669 17 5.5 17 L 26.5 17 C 27.331 17 28 17.669 28 18.5 L 28 17.5 C 28 16.669 27.331 16 26.5 16 L 5.5 16 z"/>
 <rect style="fill:#4f4f4f" width="7" height="11" x="2" y="17" rx=".75" ry=".75"/>
 <rect style="fill:#8e8e8e" width="18" height="9" x="7" y="5" rx="1.5" ry="1.5"/>
 <rect style="fill:#4f4f4f" width="7" height="11" x="23" y="17" rx=".75" ry=".75"/>
 <g style="fill:#17191e">
  <rect style="fill:#17191e" width="3" height="3" x="8" y="6" rx=".75" ry=".75"/>
  <rect style="fill:#17191e" width="3" height="3" x="12" y="6" rx=".75" ry=".75"/>
  <rect style="fill:#17191e" width="3" height="3" x="17" y="6" rx=".75" ry=".75"/>
  <rect style="fill:#17191e" width="3" height="3" x="21" y="6" rx=".75" ry=".75"/>
  <rect style="fill:#17191e" width="3" height="3" x="21" y="10" rx=".75" ry=".75"/>
  <rect style="fill:#17191e" width="3" height="3" x="17" y="10" rx=".75" ry=".75"/>
  <rect style="fill:#17191e" width="3" height="3" x="12" y="10" rx=".75" ry=".75"/>
  <rect style="fill:#17191e" width="3" height="3" x="8" y="10" rx=".75" ry=".75"/>
 </g>
 <path style="opacity:0.2;fill:#f4f4f7" d="M 8.5 5 C 7.6688 5 7 5.669 7 6.5 L 7 7.5 C 7 6.669 7.6688 6 8.5 6 L 23.5 6 C 24.331 6 25 6.669 25 7.5 L 25 6.5 C 25 5.669 24.331 5 23.5 5 L 8.5 5 z"/>
 <path style="fill:#17191e" d="M 23.75,17 C 23.3345,17 23,17.3345 23,17.75 l 0,2.25 7,0 0,-2.25 C 30,17.3345 29.6655,17 29.25,17 Z"/>
 <path style="fill:#17191e" d="m 23,24 0,3 7,0 0,-3 z"/>
 <path style="fill:#17191e" d="M 2.75,28 C 2.3345,28 2,27.6655 2,27.25 L 2,25 9,25 9,27.25 C 9,27.6655 8.6655,28 8.25,28 Z"/>
 <path style="fill:#17191e" d="m 2,22 0,-3 7,0 0,3 z"/>
</svg>
